resources/lib/oojs-ui/themes/mediawiki/images/icons/imageAdd-rtl.svg

<?xml version="1.0" encoding="utf-8"?>
<svg xmlns="http://www.w3.org/2000/svg" width="24" height="24" viewBox="0 0 24 24">
    <path d="M7 12v-4h4v-3h13v15h-20v-8h3zm15 6l-4-5-2-1-4 4-2-2-4 4h16z" id="path290"/>
    <g id="g292">
        <path d="M0 5h4v-4h2v4h4v2h-4v4h-2v-4h-4z" id="path294"/>
    </g>
</svg>

<?xml version="1.0" encoding="utf-8"?>
<svg xmlns="http://www.w3.org/2000/svg" width="24" height="24" viewBox="0 0 24 24">
    <path d="M7 12V8h4V5h13v15H4v-8h3zm15 6l-4-5-2-1-4 4-2-2-4 4h16z" id="path290"/>
    <g id="g292">
        <path d="M0 5h4V1h2v4h4v2H6v4H4V7H0z" id="path294"/>
    </g>
</svg>
